proprietary/assets/icons/computer-en-internet/wiki.svg

<svg enable-background="new 0 0 64 64" viewBox="0 0 64 64" xmlns="http://www.w3.org/2000/svg"><path d="m0 0h64v64h-64z" fill="none"/><path d="m7 47v-30h44v11.399l2.613-2.613c.119-.119.255-.214.387-.314v-12.472c0-1.657-1.343-3-3-3h-44c-1.657 0-3 1.343-3 3v34c0 1.657 1.343 3 3 3h25.374l.949-3zm6.5-35c.828 0 1.5.672 1.5 1.5s-.672 1.5-1.5 1.5-1.5-.672-1.5-1.5.672-1.5 1.5-1.5zm-5 0c.828 0 1.5.672 1.5 1.5s-.672 1.5-1.5 1.5-1.5-.672-1.5-1.5.672-1.5 1.5-1.5z"/><path d="m51 50c1.657 0 3-1.343 3-3v-1.55l-4.55 4.55z"/><path d="m60.467 28.958c-1.906-1.906-4.283-2.631-5.298-1.616l-19.482 19.483-2.847 8.995c-.149.471.294.914.765.765l8.996-2.847 19.482-19.482c1.015-1.015.29-3.392-1.616-5.298zm-23.838 24.572-.734-.734 1.425-4.504.917.521.719 1.655 1.574.684.587.957z"/><path d="m36.826 22.435c-2.609-.435-6.956-.435-7.826-.435s-5.218 0-7.826.435c-.902.15-1.589.837-1.739 1.739-.435 2.609-.435 6.957-.435 7.826s0 5.217.435 7.826c.15.902.837 1.589 1.739 1.739 2.608.435 6.956.435 7.826.435s5.217 0 7.826-.435c.902-.15 1.589-.837 1.739-1.739.435-2.608.435-6.956.435-7.826 0-2.61 0-5.217-.435-7.826-.15-.902-.836-1.588-1.739-1.739zm-3.635 14.558h-2.809l-1.398-4.732-1.424 4.732h-2.78l-2.604-9.986h2.459l1.728 7.248 1.616-4.946-.713-2.301h2.376l2.155 7.19 1.728-7.19h2.3z"/></svg>

<?xml version="1.0" encoding="utf-8"?>
<!-- Generator: Adobe Illustrator 25.2.0, SVG Export Plug-In . SVG Version: 6.00 Build 0)  -->
<svg version="1.1" xmlns="http://www.w3.org/2000/svg" xmlns:xlink="http://www.w3.org/1999/xlink" x="0px" y="0px"
	 viewBox="0 0 64 64" style="enable-background:new 0 0 64 64;" xml:space="preserve">
<style type="text/css">
	.st0{fill:none;}
	.st1{fill:#B3B3B3;}
</style>
<g id="Box">
	<rect class="st0" width="64" height="64"/>
</g>
<g id="Icon">
	<g>
		<path d="M7,47V17h44v11.399l2.613-2.613c0.119-0.119,0.255-0.214,0.387-0.314V13c0-1.657-1.343-3-3-3H7c-1.657,0-3,1.343-3,3v34
			c0,1.657,1.343,3,3,3h25.374l0.949-3H7z M13.5,12c0.828,0,1.5,0.672,1.5,1.5c0,0.828-0.672,1.5-1.5,1.5S12,14.328,12,13.5
			C12,12.672,12.672,12,13.5,12z M8.5,12c0.828,0,1.5,0.672,1.5,1.5c0,0.828-0.672,1.5-1.5,1.5S7,14.328,7,13.5
			C7,12.672,7.672,12,8.5,12z"/>
		<path d="M51,50c1.657,0,3-1.343,3-3v-1.55L49.45,50H51z"/>
		<path d="M60.467,28.958c-1.906-1.906-4.283-2.631-5.298-1.616L35.687,46.825L32.84,55.82c-0.149,0.471,0.294,0.914,0.765,0.765
			l8.996-2.847l19.482-19.482C63.098,33.241,62.373,30.864,60.467,28.958z M36.629,53.53l-0.734-0.734l1.425-4.504l0.917,0.521
			l0.719,1.655l1.574,0.684l0.587,0.957L36.629,53.53z"/>
		<path d="M36.826,22.435C34.217,22,29.87,22,29,22s-5.218,0-7.826,0.435c-0.902,0.15-1.589,0.837-1.739,1.739
			C19,26.783,19,31.131,19,32c0,0.869,0,5.217,0.435,7.826c0.15,0.902,0.837,1.589,1.739,1.739C23.782,42,28.13,42,29,42
			s5.217,0,7.826-0.435c0.902-0.15,1.589-0.837,1.739-1.739C39,37.218,39,32.87,39,32c0-2.61,0-5.217-0.435-7.826
			C38.415,23.272,37.729,22.586,36.826,22.435z M33.191,36.993h-2.809l-1.398-4.732l-1.424,4.732h-2.78l-2.604-9.986h2.459
			l1.728,7.248l1.616-4.946l-0.713-2.301h2.376l2.155,7.19l1.728-7.19h2.3L33.191,36.993z"/>
	</g>
</g>
</svg>
